exported-svg/umbrella.svg

<svg height="24" viewBox="0 0 24 24" width="24" xmlns="http://www.w3.org/2000/svg"><path d="m15 22.5c-1.93 0-3.5-1.57-3.5-3.5v-6.5h-10.5c-.141 0-.275-.06-.37-.164s-.141-.244-.127-.384c.525-5.501 4.899-9.875 10.4-10.4 6.336-.603 11.99 4.061 12.595 10.4.013.14-.033.279-.128.384-.095.104-.229.164-.37.164h-10.5v6.5c0 1.379 1.121 2.5 2.5 2.5s2.5-1.121 2.5-2.5c0-.276.224-.5.5-.5s.5.224.5.5c0 1.93-1.57 3.5-3.5 3.5zm-3-11h10.436c-.815-5.509-5.826-9.487-11.438-8.953-4.841.463-8.727 4.188-9.434 8.953z"/></svg>

<?xml version="1.0" encoding="UTF-8"?>
<svg width="24px" height="24px" viewBox="0 0 24 24" version="1.1" xmlns="http://www.w3.org/2000/svg" xmlns:xlink="http://www.w3.org/1999/xlink">
    <!-- Generator: Sketch 55.2 (78181) - https://sketchapp.com -->
    <title>umbrella</title>
    <desc>Created with Sketch.</desc>
    <g id="umbrella" stroke="none" stroke-width="1" fill="none" fill-rule="evenodd">
        <path d="M15,22.5 C13.07,22.5 11.5,20.93 11.5,19 L11.5,12.5 L1,12.5 C0.859,12.5 0.725,12.44 0.63,12.336 C0.535,12.232 0.489,12.092 0.503,11.952 C1.028,6.451 5.402,2.077 10.903,1.552 C17.239,0.949 22.893,5.613 23.498,11.952 C23.511,12.092 23.465,12.231 23.37,12.336 C23.275,12.44 23.141,12.5 23,12.5 L12.5,12.5 L12.5,19 C12.5,20.379 13.621,21.5 15,21.5 C16.379,21.5 17.5,20.379 17.5,19 C17.5,18.724 17.724,18.5 18,18.5 C18.276,18.5 18.5,18.724 18.5,19 C18.5,20.93 16.93,22.5 15,22.5 Z M12,11.5 L22.436,11.5 C21.621,5.991 16.61,2.013 10.998,2.547 C6.157,3.01 2.271,6.735 1.564,11.5 L12,11.5 Z" id="Shape" fill="#000000" fill-rule="nonzero"></path>
    </g>
</svg>
